X:1
T:Mrs. Farquharson of Monaltrie's Delight
T:Mrs. Farquharson of Monaltrie's Delight
T:Robert Petrie
C:Robert Petrie
L:1/8
M:4/4
K:Cmin
V:1 treble 
V:1
"^Slow" E | C>ECG, C(cGE) | B,(D/E/) FD .B.F.D.B, | C>ECG, C(ecG) | F(G/A/) (G/F/)(E/D/) .ECC :| %5
 c/d/ | (e/d/)c (Gc) (Ec) (Gc) | B/c/d/e/ (fd) (bf){e} (d{c}B) | (e/d/)c (Gc) (Ec) (Gc) | %9
 =B<aTg>f ecTc>d | (e/d/)c (G>c) (E>c)(G>c) | (B/c/d/e/) (fd) (bf){e}(d{c}B) | %12
 (Tg>e)(Tf>d) (Te>c)(Td>=B) | cA/ F/(E/D/) ECC ||"^Var:" E | %15
 C>E (=B,/<C/)G, C=B/<c/ (^F/<G/)(D/<E/) | %16
 (=A,/<B,/)(D/<E/) (G/<F/)(E/<D/) (=A/<B/)(=E/<F/) (^C/<D/)(A,/<B,/) | %17
 C>E (=B,/<C/)G, C(d/<e/) (B/<c/)(^F/<G/) | (=E/<F/)(G/<A/) (TG/>F/)(T_E/>D/) ECC :| c/d/ | %20
{f} e(d/<c/) G/c/(Tc/=B/4c/4) E/c/ (Tc/B/4c/4) G/c/ (Tc/B/4c/4) | %21
 (B/c/d/e/) (g/<f/)(e/<d/) (=a/<b/)(=e/<f/) (^c/<d/)(=A/<B/) | %22
 (f/<e/)(d/<c/) G/c/ Tc/(=B/4c/4) E/c/ (Tc/B/4c/4) G/c/ (Tc/B/4c/4) | %23
 (.=B/.d/.f/.a/ .g/.f/.e/.d/) ecTc>d | %24
 (f/<e/)(d/<c/) G/c/(Tc/=B/4c/4) E/c/ (Tc/B/4c/4) G/c/ (Tc/B/4c/4) | %25
 (.B/.c/.d/.e/ .g/.f/.e/.d/ .b/.=a/.g/.f/ .e/.d/.c/.B/) | %26
 (.a/.g/.f/.e/ .g/.f/.e/.d/ .f/.e/.d/.c/ .e/.d/.c/=B/) | Tc/=B/c/A/ TG/F/TE/D/ ECC z |] %28

